svgs/next_player.svg

<svg width="192" height="192" viewBox="0 0 192 192" fill="none" xmlns="http://www.w3.org/2000/svg">
<path d="M36.5172 23.0225V168.927C36.5172 169.699 37.3491 170.186 38.0219 169.806L167.486 96.8539C168.171 96.4679 168.171 95.4815 167.486 95.0955L38.0219 22.1433C37.3492 21.7642 36.5172 22.2504 36.5172 23.0225Z" stroke="black" stroke-width="12" stroke-linecap="round" stroke-linejoin="round"/>
<path d="M34 164.777L24.547 169.872C23.853 170.245 23 169.758 23 168.989V23.0117C23 22.2414 23.853 21.7545 24.547 22.1286L34 27.2237" stroke="black" stroke-width="12" stroke-linecap="round" stroke-linejoin="round"/>
</svg>

<svg width="192" height="192" viewBox="0 0 192 192" fill="none" xmlns="http://www.w3.org/2000/svg"><path d="M36.517 23.023v145.904c0 .772.832 1.259 1.505.879l129.464-72.952a1.01 1.01 0 0 0 0-1.758L38.022 22.142a1.01 1.01 0 0 0-1.505.88ZM34 164.777l-9.453 5.095c-.694.373-1.547-.114-1.547-.883V23.012c0-.77.853-1.258 1.547-.883L34 27.224" stroke="#000" stroke-width="12" stroke-linecap="round" stroke-linejoin="round"/></svg>
